X:519
T:Reel 519
M:4/4
K:Gmaj
L:1/8
e>A (3BAG egfd|eAAc BGG2|e>A (3AAA g2fg||afge dgfg:||2afge dGBd|gfga bgaf|egfa dedB|Gggf gabg| (3efg dB BAAf|g2fg efde|agab c'abg| (3efg dB Bdef|eddB BAA2| (3ggg gd egdB|d2Bd cAA2|dg (3gfg dBBd|egdB BAAf| (3ggg gd egdB| (3efg dB cAAc| (3dBG BG  (3BBB gB|dega bgg2|
